X:1
T:Gavotte Louis XV
T:Knut Håkansson (1887-1929)
T:Gavotte Louis XV
T:©PA Aglert Edition may be freely distributed, duplicated, performed and recorded
T:©PA Aglert Edition may be freely distributed, duplicated, performed and recorded
T:©PA Aglert Edition may be freely distributed, duplicated, performed and recorded
T:©PA Aglert Edition may be freely distributed, duplicated, performed and recorded
C:Knut Håkansson (1887-1929)
Z:©PA Aglert
Z:Edition may be freely distributed, duplicated, performed and recorded
%%score [ 1 2 ( 3 4 ) ( 5 6 ) ]
L:1/8
Q:1/4=140
M:2/2
K:D
V:1 treble nm="S"
V:2 treble nm="A"
V:3 treble-8 nm="T"
V:4 treble-8 
V:5 bass nm="B"
V:6 bass 
V:1
"^I lätt, sirlig gavottetakt"!mp! A2 A2 | d2 d2 =c2 _B2 | (AG) (A_B) !breath!A2 A2 | %3
w: Lätt jag|skri- der fram på|sir- * lig _ fot, mot|
!<(! =c2 c2 d2 d!<)!d |!f! !breath!=f6!p! =F2 | (A4- AG) (=FE) | =F2 !breath!F2!mp! A2 A2 | %7
w: mor- gon li- der det|ljust i|som- * * mar- *|ti- der, Lu- na|
 d2 d2 =c2 _B2 | (AG) (A_B) A2 G2 | F>E D4 E2 | F3 E D4- | D z z2!p! E2 E2 ||[K:A] A2 c2 e3 c | %13
w: spri- der milt sitt|ble- * ka _ hot på|dag- gig mark och|sjö och park.|_ Jul- len|gli- der tyst på|
 (BA) (Bc) !breath!B2 B2 |!<(! c2 c2 d2 d!<)!d |!f! !breath!e6!mp! c2 | (B4- BA) (GF) | %17
w: li- * vets _ ström, mot|mor- gon li- der det|ljust i|som- * * mar- *|
 E2 !breath!E2!p! E2 E2 | A2 c2 e3 c | (BA) (Bc) !breath!B2!<(! ^B2 | c>B A4!<)!!>(! B2 | %21
w: ti- der. Äl- ven|vri- der ut mot|ro- * sen- * dröm: i|fjär- ran sjö Cy-|
 c3 B !courtesy!=A4-!>)! | A4 z4 || %23
w: the- res ö.|_|
[K:F][Q:1/4=100]"^Långsammare, försvinnande i fjärran.""^Grave" z8 | z8 | %25
w: ||
"^Kort!" z4 !fermata!z2 z!p! A | B2 A2 G2 FF | E3 D E2 F2 | G4!>(! A4-!>)! | A2 z2 z4 | z8 | z8 | %32
w: Mot|af- ton li- der det|skumt i vin- ter-|ti- der.|_|||
 z8 | z8 | z4 z2!pp! A2 | (A8"^dim." | A4)!ppp! A4 |!>(! !fermata!A8!>)! |] %38
w: ||där|mör-|* ker|rår.|
V:2
!mp! D2 D2 | D2 D2 E2 E2 | (FE) (DC) !breath!D2 D2 |!<(! E2 E2 =F2 F!<)!F |!f! !breath!=F6!p! D2 | %5
w: Lätt jag|skri- der fram på|sir- * lig _ fot, mot|mor- gon li- der det|ljust i|
 (=F4 D2) _B,2 | A,2 !breath!A,2!mp! D2 D2 | D2 D2 E2 E2 | (FE) (DC) D2 E2 | D>C D4 D2 | D3 C D4- | %11
w: som- * mar-|ti- der, Lu- na|spri- der milt sitt|ble- * ka _ hot på|dag- gig mark och|sjö och park.|
 D z z2!p! C2 C2 ||[K:A] E2 E2 E3 E | E2 E2 !breath!E2 E2 |!<(! E2 E2 F2 F!<)!F | %15
w: _ Jul- len|gli- der tyst på|li- vets ström, mot|mor- gon li- der det|
!f! !breath!E6!mp! A2 | (G4- GF) (C^D) | E2 !breath!E2!p! C2 C2 | E2 E2 E3 E | %19
w: ljust i|som- * * mar- *|ti- der. Äl- ven|vri- der ut mot|
 (EF) (GF) !breath!G2!<(! F2 | ^E>E!<)! F4!>(! A2 | A3 G A4-!>)! | A4 z4 ||[K:F] z8 | z8 | %25
w: ro- * sen- * dröm: i|fjär- ran sjö Cy-|the- res ö.|_|||
 z4 !fermata!z2 z!p! F | G2 F2 E2 DD | ^C3 =B, C2 D2 | (E2 D2)!>(! ^C4- | C2!>)! z2 z4 | z8 | z8 | %32
w: Mot|af- ton li- der det|skumt i vin- ter-|ti- * der.|_|||
 z8 | z8 | z4 z2!pp! A2 | (A4"^dim." G4 | F4)!ppp! E4 |!>(! !fermata!D8!>)! |] %38
w: ||där|mör- *|* ker|rår.|
V:3
!mp! F2 F2 | A2 A2 G2 G2 | (FG) (^FE) !breath!F2 F2 |!<(! G2 G2 _B2 B!<)!B |!f! =c6 z2 | %5
w: Lätt jag|skri- der fram på|sir- * lig _ fot, mot|mor- gon li- der det|ljust|
 z2!p! =F2 _B2 G2 | =F2 !breath!F2!mp! ^F2 F2 | A2 A2 G2 G2 | (FG) (FE) F2 G2 | A>G F4 B2 | %10
w: i som- mar-|ti- der, Lu- na|spri- der milt sitt|ble- * ka _ hot på|dag- gig mark och|
 A3 G F4- | F z z2!p! A2 A2 ||[K:A] A2 A2 c3 A | (GF) (GA) !breath!G2 G2 |!<(! G2 G2 B2 B!<)!B | %15
w: sjö och park.|_ Jul- len|gli- der tyst på|li- * vets _ ström, mot|mor- gon li- der det|
!f! B6 z2 | z2!mp! B2 B2 A2 | G2 !breath!G2!p! A2 A2 | A2 A2 c3 A | (BA) (GA) !breath!G2!<(! G2 | %20
w: ljust|i som- mar-|ti- der. Äl- ven|vri- der ut mot|ro- * sen- * dröm: i|
 G>c!<)! c4!>(! ^d2 | e3 e A4-!>)! | A4 z4 ||[K:F] z8 | z8 | z4 !fermata!z2 z!p! [FA] | %26
w: fjär- ran sjö Cy-|the- res ö.|_|||Mot|
 [GB]2 [FA]2 [EG]2 [DF][DF] | [^CE]3 [=B,D] [CE]2 [DF]2 | G4!>(! A4-!>)! | [CA]2 z2 z4 | z8 | z8 | %32
w: af- ton li- der det|skumt i vin- ter-|ti- der.|_|||
 z4 z2!pp! A2 | c4 B4 | A6!pp! A2 | (A8 | A4)!ppp! A4 |!>(! !fermata!A8!>)! |] %38
w: och|glöms- kans|snår, där|mör-|* ker|rår.|
V:4
 x4 | x8 | x8 | x8 | x8 | x8 | x8 | x8 | x8 | x8 | x8 | x8 ||[K:A] x8 | x8 | x8 | x8 | x8 | x8 | %18
 x8 | x8 | x8 | x8 | x8 ||[K:F] x8 | x8 | x8 | x8 | x8 | (E2 D2) ^C4- | x8 | x8 | x8 | x8 | x8 | %34
 x8 | (A4"^dim." G4 | F4) E4 | D8 |] %38
V:5
!mp! D,2 D,2 | F,2 F,2 E,2 !courtesy!^C,2 | D,2 A,,2 !breath!D,2 D,2 | %3
w: Lätt jag|skri- der fram på|sir- lig fot, mot|
!<(! =C,2 C,2 _B,,2 B,,!<)!B,, |!f! A,,6 z2 | z2!p! D,2 _B,,2 =C,2 | %6
w: mor- gon li- der det|ljust|i som- mar-|
 =F,,2 !breath!F,,2!mp! D,2 D,2 | !courtesy!^F,2 F,2 E,2 !courtesy!^C,2 | D,2 A,,2 D,2 _B,,2 | %9
w: ti- der, Lu- na|spri- der milt sitt|ble- ka hot på|
 A,,>A,, B,,4 ^G,,2 | A,,3 A,, D,4- | D, z z2!p! A,,2 A,,2 ||[K:A] C,2 E,2 A,3 A, | %13
w: dag- gig mark och|sjö och park.|_ Jul- len|gli- der tyst på|
 E,2 E,2 !breath!E,2 E,2 |!<(! C,2 C,2 B,,2 B,,!<)!B,, |!f! !breath!G,,6!mp! A,,2 | %16
w: li- vets ström, mot|mor- gon li- der det|ljust i|
 (B,,2 C,2 ^D,2) B,,2 | E,2 !breath!E,2!p! A,,2 A,,2 | C,2 C,2 A,3 A, | %19
w: som- * * mar-|ti- der. Äl- ven|vri- der ut mot|
 (G,F,) (E,^D,) !breath!E,2!<(! =D,2 | C,>C,!<)! F,4!>(! =F,2 | E,3 E, A,4-!>)! | A,4 z4 || %23
w: ro- * sen- * dröm: i|fjär- ran sjö Cy-|the- res ö.|_|
[K:F] z4!mp! A,,2 A,,2 | D,2 D,2 C,2 B,,2 | (A,,G,,) (A,,B,,) !fermata!A,,4- | A,,8- | A,,8- | %28
w: En- sam|ri- der jag på|bred _ pa- * vé.|_||
 A,,8- |!>(! A,,2 z2!p! A,,2 A,,2!>)! | D,2 D,2 C,2 B,,2 | (A,,G,,) (A,,B,,) A,,4- | %32
w: |* Le- den|vri- der ut i|smal _ al- * lé,|
!>(! A,,4!>)! z4 | z8 | z4 z2!pp! A,,2 | (A,,8 | A,,4)!ppp! A,,4 |!>(! !fermata!A,,8!>)! |] %38
w: _||där|mör-|* ker|rår.|
V:6
 x4 | x8 | x8 | x8 | x8 | x8 | x8 | x8 | x8 | x8 | x8 | x8 ||[K:A] x8 | x8 | x8 | x8 | x8 | x8 | %18
 x8 | x8 | x8 | x8 | x8 ||[K:F] x8 | x8 | x8 | x8 | x8 | x8 | x8 | x8 | x8 | x8 | x8 | x8 | %35
 (A,,4"^dim." G,,4 | F,,4) E,,4 | D,,8 |] %38

